packages/astro-components-stencil/src/icons/arrow-upward.svg

<svg width="24" height="24" viewBox="0 0 24 24" fill="none" xmlns="http://www.w3.org/2000/svg">
<path d="M13 19V7.82998L17.88 12.71C18.27 13.1 18.91 13.1 19.3 12.71C19.69 12.32 19.69 11.69 19.3 11.3L12.71 4.70998C12.32 4.31998 11.69 4.31998 11.3 4.70998L4.69997 11.29C4.30997 11.68 4.30997 12.31 4.69997 12.7C5.08997 13.09 5.71997 13.09 6.10997 12.7L11 7.82998V19C11 19.55 11.45 20 12 20C12.55 20 13 19.55 13 19Z" fill="black"/>
</svg>

<svg xmlns="http://www.w3.org/2000/svg" viewBox="0 0 24 24"><g xmlns="http://www.w3.org/2000/svg" id="arrow-upward" fill-rule="nonzero">
            <path d="M13 19V7.83l4.88 4.88c.39.39 1.03.39 1.42 0a.996.996 0 000-1.41l-6.59-6.59a.996.996 0 00-1.41 0l-6.6 6.58a.996.996 0 101.41 1.41L11 7.83V19c0 .55.45 1 1 1s1-.45 1-1z"/>
        </g></svg>
